X:69
T:The Braes of Auchtertyre
S:Petrie's Second Collection of Strathspey Reels and Country Dances &c.
Z:Steve Wyrick , 6/11/04
N:Petrie's Second Collection, page 24
% Gore's Index gives earliest publication as Joshua Campbell's
% "Coll. Of Newest & Best Reels & Minuets..." Glasgow 1788
L:1/8
M:C
R:Reel
K:C
C3D     (EGGA)|cded          cAGc|A/A/A (AG) A2a2       | gcfe         Td2c2  |
C2 (CD) (EGGA)|cded          cAGc|AcGc       FcEc       | d/c/B/A/ cE   D2C2 ||
efga     gecg |afdg          edcG|A/A/A ag   a2({ab}c'2)| ecfe         Td2c2  |
efga     gecg |(a/g/f/e/ d)g edcG|AcGc       FcEc       |(d/c/B/A/) cE TD2 C2|]
